icon/lg/unocss.svg

<?xml version="1.0" encoding="UTF-8"?>
<svg viewBox="0 0 256 256" version="1.1" xmlns="http://www.w3.org/2000/svg" xmlns:xlink="http://www.w3.org/1999/xlink" preserveAspectRatio="xMidYMid" height="1em" width="1em">
  <g fill="#333333">
    <path d="M137.175641,195.926943 C137.175641,163.114785 163.775662,136.514763 196.58782,136.514763 L196.58782,136.514763 C229.399979,136.514763 256,163.114785 256,195.926943 L256,195.926943 C256,228.739102 229.399979,255.339123 196.58782,255.339123 L196.58782,255.339123 C163.775662,255.339123 137.175641,228.739102 137.175641,195.926943 L137.175641,195.926943 Z" fill-opacity="0.6"/>
    <path d="M137.175641,59.4121321 C137.175641,26.5997359 163.775662,0 196.58782,0 L196.58782,0 C229.399979,0 256,26.5997359 256,59.4121321 L256,112.883094 C256,116.164904 253.339523,118.824193 250.058782,118.824193 L143.116859,118.824193 C139.836118,118.824193 137.175641,116.164904 137.175641,112.883094 L137.175641,59.4121321 Z" fill-opacity="0.3"/>
    <path d="M118.824407,195.926943 C118.824407,228.739102 92.2246233,255.339123 59.4122271,255.339123 L59.4122271,255.339123 C26.5997121,255.339123 -8.44297853e-15,228.739102 -8.44297853e-15,195.926943 L-8.44297853e-15,142.455981 C-8.44297853e-15,139.174053 2.65997834,136.514763 5.94121796,136.514763 L112.883189,136.514763 C116.163929,136.514763 118.824407,139.174053 118.824407,142.455981 L118.824407,195.926943 Z"/>
  </g>
</svg>

<svg width="256" height="256" xmlns="http://www.w3.org/2000/svg" preserveAspectRatio="xMidYMid"><g fill="#333"><path d="M137.176 195.927c0-32.812 26.6-59.412 59.412-59.412S256 163.115 256 195.927s-26.6 59.412-59.412 59.412-59.412-26.6-59.412-59.412Z" fill-opacity=".6"/><path d="M137.176 59.412C137.176 26.6 163.776 0 196.588 0S256 26.6 256 59.412v53.471a5.941 5.941 0 0 1-5.941 5.941H143.117a5.941 5.941 0 0 1-5.941-5.94V59.411Z" fill-opacity=".3"/><path d="M118.824 195.927c0 32.812-26.6 59.412-59.412 59.412S0 228.74 0 195.927v-53.471a5.94 5.94 0 0 1 5.941-5.941h106.942c3.28 0 5.941 2.66 5.941 5.941v53.47Z"/></g></svg>
